assests/images/12.svg

<svg xmlns="http://www.w3.org/2000/svg" xmlns:xlink="http://www.w3.org/1999/xlink" width="1024" zoomAndPan="magnify" viewBox="0 0 768 767.999994" height="1024" preserveAspectRatio="xMidYMid meet" version="1.0"><defs><clipPath id="cc5af3d45d"><path d="M 185.027344 158.359375 L 583.277344 158.359375 L 583.277344 609.859375 L 185.027344 609.859375 Z M 185.027344 158.359375 " clip-rule="nonzero"/></clipPath></defs><g clip-path="url(#cc5af3d45d)"><path fill="#000000" d="M 279.515625 306.269531 C 282.382812 309.066406 282.449219 313.660156 279.648438 316.527344 L 255.992188 340.96875 C 253.191406 343.835938 248.597656 343.902344 245.730469 341.105469 L 238.765625 334.34375 C 235.898438 331.570312 235.820312 326.988281 238.597656 324.109375 C 241.371094 321.242188 245.957031 321.164062 248.835938 323.941406 L 250.605469 325.65625 L 269.242188 306.390625 C 272.042969 303.539062 276.636719 303.46875 279.515625 306.269531 Z M 218.425781 357.09375 L 218.425781 290.277344 C 218.425781 286.261719 221.6875 283 225.707031 283 L 292.539062 283 C 296.558594 283 299.820312 286.261719 299.820312 290.277344 L 299.820312 357.105469 C 299.820312 361.125 296.558594 364.382812 292.539062 364.382812 L 225.707031 364.382812 C 221.6875 364.375 218.425781 361.125 218.425781 357.09375 Z M 232.984375 349.816406 L 285.257812 349.816406 L 285.257812 297.546875 L 232.984375 297.546875 Z M 322.691406 297.554688 L 482.726562 297.554688 C 486.746094 297.554688 490.007812 294.296875 490.007812 290.277344 C 490.007812 286.261719 486.746094 283 482.726562 283 L 322.691406 283 C 318.671875 283 315.410156 286.261719 315.410156 290.277344 C 315.410156 294.296875 318.671875 297.554688 322.691406 297.554688 Z M 322.691406 330.96875 L 447.238281 330.96875 C 451.257812 330.96875 454.519531 327.710938 454.519531 323.691406 C 454.519531 319.675781 451.257812 316.414062 447.238281 316.414062 L 322.691406 316.414062 C 318.671875 316.414062 315.410156 319.675781 315.410156 323.691406 C 315.410156 327.710938 318.671875 330.96875 322.691406 330.96875 Z M 408.894531 466.148438 L 408.894531 489.101562 C 408.894531 492.871094 405.972656 496.066406 402.15625 496.347656 L 380.066406 498.027344 C 379.421875 500.152344 378.675781 502.203125 377.851562 504.191406 C 377.019531 506.210938 376.082031 508.183594 375.042969 510.136719 L 389.140625 526.554688 C 391.960938 529.398438 391.960938 533.992188 389.117188 536.824219 L 372.886719 553.054688 C 370.222656 555.695312 365.921875 555.898438 363.019531 553.425781 L 346.203125 538.980469 C 344.285156 539.996094 342.296875 540.933594 340.253906 541.78125 L 340.21875 541.78125 C 338.222656 542.601562 336.179688 543.335938 334.078125 543.980469 L 332.429688 565.726562 C 332.328125 569.652344 329.113281 572.8125 325.152344 572.8125 L 302.191406 572.8125 C 298.421875 572.8125 295.226562 569.902344 294.945312 566.074219 L 293.261719 543.980469 C 291.140625 543.335938 289.085938 542.59375 287.097656 541.769531 C 285.046875 540.910156 283.058594 539.972656 281.152344 538.957031 L 264.738281 553.054688 C 261.894531 555.875 257.300781 555.875 254.464844 553.03125 L 238.222656 536.804688 C 235.582031 534.140625 235.378906 529.839844 237.851562 526.941406 L 252.300781 510.113281 C 251.261719 508.175781 250.3125 506.1875 249.488281 504.167969 C 248.664062 502.183594 247.917969 500.117188 247.277344 498.007812 L 225.523438 496.359375 C 221.597656 496.257812 218.4375 493.042969 218.4375 489.082031 L 218.4375 466.128906 C 218.4375 462.359375 221.359375 459.164062 225.175781 458.882812 L 247.277344 457.199219 C 247.886719 455.238281 248.5625 453.308594 249.332031 451.433594 L 249.488281 451.039062 C 250.324219 449.019531 251.261719 447.042969 252.300781 445.09375 L 238.199219 428.671875 C 235.378906 425.828125 235.378906 421.238281 238.222656 418.402344 L 254.457031 402.175781 C 257.121094 399.535156 261.417969 399.332031 264.320312 401.804688 L 281.152344 416.25 C 282.945312 415.300781 284.796875 414.421875 286.726562 413.609375 L 287.109375 413.4375 C 289.097656 412.617188 291.164062 411.871094 293.273438 411.226562 L 294.921875 389.480469 C 295.023438 385.554688 298.242188 382.394531 302.203125 382.394531 L 325.160156 382.394531 C 328.933594 382.394531 332.125 385.316406 332.410156 389.132812 L 334.089844 411.226562 C 336.210938 411.871094 338.265625 412.617188 340.253906 413.4375 C 342.273438 414.285156 344.261719 415.222656 346.191406 416.25 L 362.613281 402.144531 C 365.460938 399.320312 370.054688 399.320312 372.886719 402.164062 L 389.117188 418.394531 C 391.757812 421.054688 391.960938 425.355469 389.492188 428.253906 L 375.03125 445.082031 C 375.992188 446.898438 376.882812 448.75 377.671875 450.644531 L 377.839844 451.027344 C 378.664062 453.015625 379.410156 455.078125 380.054688 457.191406 L 401.792969 458.835938 C 405.746094 458.972656 408.894531 462.1875 408.894531 466.148438 Z M 394.332031 472.886719 L 373.835938 471.328125 C 370.378906 471.070312 367.671875 468.441406 367.1875 465.15625 C 366.507812 462.269531 365.582031 459.414062 364.433594 456.625 L 364.296875 456.265625 C 363.101562 453.433594 361.675781 450.734375 360.0625 448.183594 C 358.3125 445.429688 358.652344 441.933594 360.671875 439.574219 L 374.082031 423.945312 L 367.355469 417.21875 L 351.734375 430.636719 C 349.148438 432.847656 345.457031 432.925781 342.804688 431.03125 C 340.253906 429.429688 337.542969 428.03125 334.699219 426.855469 L 334.675781 426.84375 C 331.730469 425.636719 328.71875 424.679688 325.660156 423.988281 C 322.453125 423.277344 320.21875 420.558594 319.992188 417.445312 L 318.410156 396.941406 L 308.929688 396.941406 L 307.371094 417.445312 C 307.113281 420.898438 304.484375 423.605469 301.199219 424.089844 C 298.308594 424.769531 295.453125 425.695312 292.675781 426.84375 L 292.3125 426.980469 C 289.558594 428.144531 286.863281 429.574219 284.230469 431.246094 C 281.320312 433.085938 277.59375 432.613281 275.234375 430.296875 L 259.984375 417.207031 L 253.257812 423.933594 L 266.679688 439.550781 C 268.890625 442.136719 268.972656 445.824219 267.074219 448.476562 C 265.496094 450.996094 264.09375 453.714844 262.898438 456.601562 L 262.75 456.941406 C 261.613281 459.738281 260.699219 462.652344 260.042969 465.621094 C 259.332031 468.824219 256.609375 471.058594 253.496094 471.285156 L 232.996094 472.863281 L 232.996094 482.34375 L 253.496094 483.902344 C 256.949219 484.160156 259.660156 486.789062 260.144531 490.074219 C 260.820312 492.960938 261.746094 495.816406 262.898438 498.59375 C 264.152344 501.59375 265.617188 504.425781 267.277344 507.035156 C 269.039062 509.789062 268.6875 513.285156 266.667969 515.644531 L 253.257812 531.273438 L 259.984375 538 L 275.609375 524.582031 C 278.09375 522.460938 281.589844 522.300781 284.222656 523.972656 C 286.953125 525.6875 289.773438 527.175781 292.640625 528.363281 L 292.664062 528.375 C 295.609375 529.582031 298.625 530.539062 301.683594 531.226562 C 304.890625 531.9375 307.125 534.660156 307.351562 537.773438 L 308.929688 558.277344 L 318.410156 558.277344 L 319.96875 537.773438 C 320.230469 534.320312 322.859375 531.613281 326.144531 531.125 C 329.066406 530.449219 331.921875 529.523438 334.675781 528.382812 C 337.589844 527.164062 340.410156 525.6875 343.109375 523.972656 C 346.023438 522.132812 349.746094 522.605469 352.105469 524.921875 L 367.355469 538.011719 L 374.082031 531.285156 L 360.660156 515.667969 C 358.449219 513.082031 358.371094 509.390625 360.265625 506.742188 C 361.847656 504.222656 363.246094 501.503906 364.441406 498.617188 C 365.664062 495.679688 366.621094 492.65625 367.308594 489.597656 C 368.019531 486.394531 370.742188 484.160156 373.855469 483.933594 L 394.355469 482.355469 L 394.355469 472.886719 Z M 342.207031 449.085938 C 349.507812 456.386719 354.035156 466.476562 354.035156 477.625 C 354.035156 488.730469 349.519531 498.796875 342.21875 506.121094 L 342.183594 506.152344 C 334.871094 513.457031 324.777344 517.980469 313.671875 517.980469 C 302.53125 517.980469 292.4375 513.464844 285.125 506.152344 C 277.820312 498.851562 273.292969 488.765625 273.292969 477.613281 C 273.292969 466.488281 277.820312 456.410156 285.125 449.109375 L 285.15625 449.074219 C 292.460938 441.773438 302.550781 437.25 313.671875 437.25 C 324.8125 437.273438 334.902344 441.785156 342.207031 449.085938 Z M 339.464844 477.625 C 339.464844 470.503906 336.574219 464.050781 331.902344 459.378906 C 327.238281 454.71875 320.78125 451.816406 313.648438 451.816406 C 306.503906 451.816406 300.046875 454.707031 295.382812 459.355469 C 290.734375 464.027344 287.84375 470.484375 287.84375 477.613281 C 287.84375 484.734375 290.734375 491.191406 295.40625 495.863281 C 300.082031 500.535156 306.527344 503.421875 313.660156 503.421875 C 320.804688 503.421875 327.261719 500.546875 331.910156 495.894531 L 331.945312 495.863281 C 336.585938 491.222656 339.464844 484.769531 339.464844 477.625 Z M 542.460938 482.964844 L 482.828125 544.589844 L 468.921875 531.136719 C 466.054688 528.363281 461.460938 528.441406 458.683594 531.308594 C 455.90625 534.171875 455.988281 538.765625 458.855469 541.542969 L 477.964844 560.027344 C 480.832031 562.804688 485.425781 562.722656 488.203125 559.859375 L 552.871094 493.03125 C 555.644531 490.164062 555.566406 485.570312 552.699219 482.792969 C 549.820312 480.019531 545.238281 480.097656 542.460938 482.964844 Z M 583.15625 460.710938 L 583.15625 538.191406 L 583.132812 538.191406 L 583.132812 538.359375 C 581.753906 589.738281 547.867188 598.699219 514.964844 607.398438 L 509.402344 608.890625 C 509.128906 608.980469 508.871094 609.046875 508.585938 609.105469 L 507.234375 609.464844 C 505.992188 609.816406 504.648438 609.847656 503.316406 609.476562 L 502.445312 609.238281 L 192.484375 609.238281 C 188.46875 609.238281 185.203125 605.976562 185.203125 601.960938 L 185.238281 601.296875 L 185.769531 216.339844 C 185.769531 212.335938 189.019531 209.097656 193.015625 209.097656 L 193.015625 209.0625 L 259.308594 209.0625 L 259.308594 196.839844 C 259.308594 192.824219 262.570312 189.5625 266.589844 189.5625 L 310.949219 189.5625 C 314.40625 181.175781 320.070312 173.910156 327.214844 168.503906 C 335.636719 162.140625 346.089844 158.359375 357.378906 158.359375 C 368.664062 158.359375 379.128906 162.140625 387.550781 168.503906 C 394.695312 173.898438 400.359375 181.167969 403.816406 189.550781 L 448.175781 189.550781 C 452.195312 189.550781 455.457031 192.8125 455.457031 196.828125 L 455.457031 209.050781 L 521.75 209.050781 C 525.769531 209.050781 529.03125 212.3125 529.03125 216.328125 L 529.03125 438.613281 C 531.433594 439.8125 533.953125 440.960938 536.558594 442.078125 C 550.195312 447.902344 565.5 452.214844 576.167969 453.433594 C 580.050781 453.589844 583.15625 456.792969 583.15625 460.710938 Z M 327.261719 189.5625 L 387.503906 189.5625 C 385.191406 185.917969 382.234375 182.699219 378.789062 180.105469 C 372.828125 175.601562 365.402344 172.917969 357.386719 172.917969 C 349.363281 172.917969 341.933594 175.601562 335.976562 180.105469 C 332.53125 182.699219 329.574219 185.90625 327.261719 189.5625 Z M 273.871094 204.121094 L 273.871094 228.5625 L 440.894531 228.5625 L 440.894531 216.339844 C 440.894531 216.328125 440.894531 216.328125 440.894531 216.316406 L 440.894531 204.121094 Z M 199.742188 594.695312 L 458.773438 594.695312 C 441.390625 585.441406 428.421875 570.058594 427.394531 539.09375 L 427.339844 538.179688 L 427.339844 460.699219 C 427.351562 457.03125 430.117188 453.871094 433.851562 453.476562 C 444.539062 452.335938 460.09375 447.980469 473.933594 442.078125 C 485.222656 437.261719 495.078125 431.574219 499.523438 426.078125 L 499.953125 425.570312 L 500.269531 425.253906 C 500.855469 424.699219 501.523438 424.261719 502.222656 423.945312 L 502.425781 423.855469 C 503.339844 423.472656 504.285156 423.289062 505.234375 423.289062 C 506.183594 423.289062 507.132812 423.472656 508.035156 423.84375 L 508.261719 423.945312 C 508.972656 424.273438 509.625 424.699219 510.214844 425.253906 C 510.496094 425.511719 510.710938 425.785156 510.96875 426.078125 C 511.90625 427.230469 513.089844 428.402344 514.46875 429.566406 L 514.46875 223.621094 L 455.457031 223.621094 L 455.457031 235.839844 C 455.457031 239.859375 452.195312 243.121094 448.175781 243.121094 L 266.589844 243.121094 C 265.335938 243.121094 264.152344 242.804688 263.125 242.238281 C 260.855469 241.007812 259.308594 238.605469 259.308594 235.839844 L 259.308594 223.621094 L 200.261719 223.621094 Z M 568.617188 538.191406 L 568.59375 466.984375 C 557.351562 464.988281 543.386719 460.789062 530.882812 455.453125 C 526.75 453.691406 522.753906 451.773438 519.019531 449.765625 C 518.5 449.550781 518.011719 449.289062 517.574219 448.972656 C 512.910156 446.378906 508.699219 443.613281 505.246094 440.746094 C 498.722656 446.164062 489.546875 451.21875 479.613281 455.453125 C 467.105469 460.789062 453.140625 464.988281 441.898438 466.984375 L 441.886719 538.550781 C 443.210938 578.546875 471.632812 586.0625 499.21875 593.363281 L 504.207031 594.695312 L 506.273438 594.695312 L 511.261719 593.363281 C 538.953125 586.039062 567.453125 578.5 568.617188 538.191406 Z M 568.617188 538.191406 " fill-opacity="1" fill-rule="nonzero"/></g></svg>

<svg xmlns="http://www.w3.org/2000/svg" width="1024" viewBox="0 0 768 768" height="1024" version="1.0"><defs><clipPath id="a"><path d="M185.027 158.36h398.25v451.5h-398.25Zm0 0"/></clipPath></defs><g clip-path="url(#a)"><path d="M279.516 306.27c2.867 2.796 2.933 7.39.132 10.257l-23.656 24.442c-2.8 2.867-7.394 2.933-10.262.136l-6.964-6.761c-2.868-2.774-2.946-7.356-.168-10.235 2.773-2.867 7.359-2.945 10.238-.168l1.77 1.715 18.636-19.265c2.801-2.852 7.395-2.922 10.274-.121Zm-61.09 50.824v-66.817a7.283 7.283 0 0 1 7.281-7.277h66.832a7.283 7.283 0 0 1 7.281 7.277v66.828a7.28 7.28 0 0 1-7.28 7.278h-66.833a7.288 7.288 0 0 1-7.281-7.29Zm14.558-7.278h52.274v-52.27h-52.274Zm89.707-52.261h160.036a7.28 7.28 0 0 0 7.28-7.278 7.283 7.283 0 0 0-7.28-7.277H322.69a7.283 7.283 0 0 0-7.28 7.277 7.28 7.28 0 0 0 7.28 7.278Zm0 33.414h124.547a7.28 7.28 0 0 0 7.282-7.278 7.283 7.283 0 0 0-7.282-7.277H322.691a7.283 7.283 0 0 0-7.28 7.277 7.28 7.28 0 0 0 7.28 7.278Zm86.204 135.18v22.953c0 3.77-2.922 6.964-6.739 7.246l-22.09 1.68a66.447 66.447 0 0 1-2.214 6.163 66.897 66.897 0 0 1-2.809 5.946l14.098 16.418c2.82 2.843 2.82 7.437-.024 10.27l-16.23 16.23c-2.664 2.64-6.965 2.843-9.867.37l-16.817-14.445a70.269 70.269 0 0 1-5.95 2.801h-.034a70.573 70.573 0 0 1-6.14 2.2l-1.65 21.746a7.28 7.28 0 0 1-7.277 7.086h-22.96a7.273 7.273 0 0 1-7.247-6.739l-1.683-22.094a66.841 66.841 0 0 1-6.164-2.21 71.047 71.047 0 0 1-5.946-2.813l-16.414 14.098c-2.843 2.82-7.437 2.82-10.273-.024l-16.242-16.226c-2.641-2.664-2.844-6.965-.371-9.864l14.449-16.828a62.929 62.929 0 0 1-2.813-5.945 66.441 66.441 0 0 1-2.21-6.16l-21.755-1.649a7.28 7.28 0 0 1-7.085-7.277v-22.953c0-3.77 2.921-6.965 6.738-7.246l22.101-1.684c.61-1.96 1.286-3.89 2.055-5.765l.156-.395a67.518 67.518 0 0 1 2.813-5.945l-14.102-16.422a7.269 7.269 0 0 1 .024-10.27l16.234-16.226c2.664-2.64 6.961-2.844 9.863-.371l16.832 14.445a69.675 69.675 0 0 1 5.575-2.64l.382-.173a69.312 69.312 0 0 1 6.164-2.21l1.649-21.747a7.283 7.283 0 0 1 7.281-7.085h22.957a7.285 7.285 0 0 1 7.25 6.738l1.68 22.094a68.008 68.008 0 0 1 6.164 2.21 71.672 71.672 0 0 1 5.937 2.813l16.422-14.105c2.848-2.825 7.442-2.825 10.274.02l16.23 16.23c2.64 2.66 2.844 6.96.375 9.859l-14.46 16.828a66.985 66.985 0 0 1 2.64 5.563l.168.382a67.693 67.693 0 0 1 2.215 6.164l21.738 1.645c3.953.137 7.102 3.351 7.102 7.312Zm-14.563 6.738-20.496-1.559a7.263 7.263 0 0 1-6.649-6.172 56.357 56.357 0 0 0-2.753-8.531l-.137-.36a55.508 55.508 0 0 0-4.235-8.081 7.265 7.265 0 0 1 .61-8.61l13.41-15.629-6.727-6.726-15.62 13.418a7.258 7.258 0 0 1-8.93.394c-2.551-1.601-5.262-3-8.106-4.176l-.023-.011a56.8 56.8 0 0 0-9.016-2.856 7.246 7.246 0 0 1-5.668-6.543l-1.582-20.504h-9.48l-1.559 20.504a7.262 7.262 0 0 1-6.172 6.645 55.706 55.706 0 0 0-8.523 2.754l-.363.136a55.146 55.146 0 0 0-8.083 4.266 7.294 7.294 0 0 1-8.996-.95l-15.25-13.089-6.726 6.727 13.422 15.617a7.247 7.247 0 0 1 .394 8.926 54.811 54.811 0 0 0-4.176 8.125l-.148.34a54.14 54.14 0 0 0-2.707 8.68 7.25 7.25 0 0 1-6.547 5.663l-20.5 1.578v9.48l20.5 1.56a7.266 7.266 0 0 1 6.649 6.171 54.95 54.95 0 0 0 2.753 8.52c1.254 3 2.72 5.832 4.38 8.441 1.761 2.754 1.41 6.25-.61 8.61l-13.41 15.628 6.726 6.727 15.625-13.418a7.262 7.262 0 0 1 8.614-.61c2.73 1.716 5.55 3.204 8.418 4.391l.023.012a56.43 56.43 0 0 0 9.02 2.852 7.25 7.25 0 0 1 5.668 6.546l1.578 20.504h9.48l1.559-20.504a7.277 7.277 0 0 1 6.176-6.648 54.283 54.283 0 0 0 8.53-2.742 56.097 56.097 0 0 0 8.434-4.41 7.293 7.293 0 0 1 8.996.949l15.25 13.09 6.727-6.727-13.422-15.617a7.252 7.252 0 0 1-.394-8.926 54.44 54.44 0 0 0 4.175-8.125 54.717 54.717 0 0 0 2.868-9.02 7.25 7.25 0 0 1 6.546-5.663l20.5-1.579v-9.468Zm-52.125-23.801c7.3 7.3 11.828 17.39 11.828 28.539 0 11.105-4.515 21.172-11.816 28.496l-.035.031c-7.313 7.305-17.407 11.828-28.512 11.828-11.14 0-21.235-4.515-28.547-11.828-7.305-7.3-11.832-17.386-11.832-28.539 0-11.125 4.527-21.203 11.832-28.504l.031-.035c7.305-7.3 17.395-11.824 28.516-11.824a40.358 40.358 0 0 1 28.535 11.836Zm-2.742 28.539c0-7.121-2.89-13.574-7.563-18.246-4.664-4.66-11.12-7.563-18.254-7.563a25.798 25.798 0 0 0-18.265 7.54 25.821 25.821 0 0 0-7.54 18.257c0 7.121 2.891 13.578 7.563 18.25 4.676 4.672 11.121 7.559 18.254 7.559 7.145 0 13.602-2.875 18.25-7.527l.035-.032c4.64-4.64 7.52-11.093 7.52-18.238Zm202.996 5.34-59.633 61.625-13.906-13.453c-2.867-2.774-7.461-2.696-10.238.172-2.778 2.863-2.696 7.457.171 10.234l19.11 18.484c2.867 2.778 7.46 2.696 10.238-.168l64.668-66.828c2.774-2.867 2.695-7.46-.172-10.238-2.879-2.773-7.46-2.695-10.238.172Zm40.695-22.254v77.48h-.023v.168c-1.38 51.38-35.266 60.34-68.168 69.04l-5.563 1.492a7.16 7.16 0 0 1-.816.214l-1.352.36a7.212 7.212 0 0 1-3.918.012l-.87-.239H192.483c-4.015 0-7.28-3.261-7.28-7.277l.034-.664.532-384.957a7.245 7.245 0 0 1 7.246-7.242v-.036h66.293V196.84a7.283 7.283 0 0 1 7.28-7.278h44.36a50.677 50.677 0 0 1 16.266-21.058c8.422-6.363 18.875-10.145 30.164-10.145 11.285 0 21.75 3.782 30.172 10.145a50.593 50.593 0 0 1 16.265 21.047h44.36a7.283 7.283 0 0 1 7.281 7.277v12.223h66.293a7.283 7.283 0 0 1 7.281 7.277v222.285c2.403 1.2 4.922 2.348 7.528 3.465 13.636 5.824 28.941 10.137 39.609 11.356 3.883.156 6.988 3.359 6.988 7.277ZM327.262 189.562h60.242a35.969 35.969 0 0 0-8.715-9.457c-5.96-4.503-13.387-7.187-21.402-7.187a35.419 35.419 0 0 0-21.41 7.187 35.788 35.788 0 0 0-8.715 9.458Zm-53.39 14.56v24.44h167.023v-24.441Zm-74.13 390.573h259.031c-17.382-9.254-30.351-24.636-31.378-55.601l-.055-.914V460.7c.012-3.669 2.777-6.829 6.512-7.223 10.687-1.141 26.242-5.497 40.082-11.399 11.289-4.816 21.144-10.504 25.59-16l.43-.508.316-.316a7.107 7.107 0 0 1 1.953-1.309l.203-.09a7.23 7.23 0 0 1 2.808-.566c.95 0 1.899.184 2.801.555l.227.101c.71.328 1.363.754 1.953 1.309.281.258.496.531.754.824.937 1.152 2.12 2.324 3.5 3.488V223.621h-59.012v12.219a7.284 7.284 0 0 1-7.281 7.281H266.59a7.158 7.158 0 0 1-3.465-.883 7.275 7.275 0 0 1-3.816-6.398V223.62h-59.047Zm368.875-56.504-.023-71.207c-11.242-1.996-25.207-6.195-37.711-11.53a146.42 146.42 0 0 1-11.863-5.688 7.073 7.073 0 0 1-1.446-.793c-4.664-2.594-8.875-5.36-12.328-8.227-6.523 5.418-15.7 10.473-25.633 14.707-12.508 5.336-26.472 9.535-37.715 11.531l-.011 71.567c1.324 39.996 29.746 47.511 57.332 54.812l4.988 1.332h2.066l4.989-1.332c27.691-7.324 56.191-14.863 57.355-55.172Zm0 0"/></g></svg>
